!! 00000] TT[WS
!!!OTL: You daiyuan
!!!ARE: Asia, China,ÿShanxi Dingxiang
!! Ethnic Group: Han
!! WI, 187
!!!SCT: J0222
!!!YEM: Copyright 1995, estate of Helmut Schaffrath.
**kern
*ICvox
*Ivox
*M2/4
*k[f#]
*G:
{8r
8dd
8dd
8dd
=1
8dd
8ee
8dd
8cc
=2
8a
8cc
8dd
8cc
=3
8a
8a
4d
=4
4dd
8cc
8a
=5
8g
8a
4d}
=6
{8.f#
16g
4d
=7
8.f#
16g
8a
8dd
=8
8dd
8g
4a
=9
8dd
8dd
8cc
8dd
=10
8cc
8cc
4a}
=11
{8a
8d
8f#
8g
=12
4a
4dd
=13
8f#
8a
8g
8e
=14
2d}
==
!!!AGN: Xiaodiao. Fengsuge, Qingge
!!!ONB: ESAC (Essen Associative Code) Database: CHINA
!!!AMT: simple duple
!!!AIN: vox
!!!EED: Helmut Schaffrath
!!!EEV: 1.0
*-
